src/lib/packages/icons/src/assets/line/line-down-square.svg

<svg width="24" height="24" viewBox="0 0 24 24" fill="none" xmlns="http://www.w3.org/2000/svg">
<path d="M17.625 2.25H6.375C3.715 2.25 2.25 3.715 2.25 6.375V17.625C2.25 20.285 3.715 21.75 6.375 21.75H17.625C20.285 21.75 21.75 20.285 21.75 17.625V6.375C21.75 3.715 20.285 2.25 17.625 2.25ZM20.25 17.625C20.25 19.465 19.465 20.25 17.625 20.25H6.375C4.535 20.25 3.75 19.465 3.75 17.625V6.375C3.75 4.535 4.535 3.75 6.375 3.75H17.625C19.465 3.75 20.25 4.535 20.25 6.375V17.625ZM17.75 11.4241V14.304C17.75 14.402 17.73 14.4991 17.692 14.5911C17.616 14.7741 17.47 14.9201 17.287 14.9971C17.195 15.0351 17.098 15.0549 17 15.0549H14.12C13.706 15.0549 13.37 14.7189 13.37 14.3049C13.37 13.8909 13.706 13.5549 14.12 13.5549H15.19L12.922 11.2871C12.877 11.2431 12.805 11.2441 12.76 11.2871L11.286 12.761C10.657 13.391 9.63199 13.391 9.00299 12.761L6.46899 10.2271C6.17599 9.93405 6.17599 9.45902 6.46899 9.16602C6.76199 8.87302 7.237 8.87302 7.53 9.16602L10.064 11.7C10.102 11.738 10.188 11.739 10.226 11.7L11.7 10.2261C12.31 9.61707 13.374 9.61807 13.983 10.2261L16.251 12.4939V11.4241C16.251 11.0101 16.587 10.6741 17.001 10.6741C17.415 10.6741 17.75 11.0101 17.75 11.4241Z" fill="currentColor"/>
</svg>

<svg xmlns="http://www.w3.org/2000/svg" width="24" height="24" fill="none"><path fill="currentColor" d="M17.625 2.25H6.375c-2.66 0-4.125 1.465-4.125 4.125v11.25c0 2.66 1.465 4.125 4.125 4.125h11.25c2.66 0 4.125-1.465 4.125-4.125V6.375c0-2.66-1.465-4.125-4.125-4.125Zm2.625 15.375c0 1.84-.785 2.625-2.625 2.625H6.375c-1.84 0-2.625-.785-2.625-2.625V6.375c0-1.84.785-2.625 2.625-2.625h11.25c1.84 0 2.625.785 2.625 2.625v11.25Zm-2.5-6.2v2.879a.751.751 0 0 1-.75.75h-2.88a.75.75 0 0 1 0-1.5h1.07l-2.268-2.267a.117.117 0 0 0-.162 0l-1.474 1.474c-.629.63-1.654.63-2.283 0l-2.534-2.534A.75.75 0 0 1 7.53 9.166l2.534 2.534c.038.038.124.039.162 0l1.474-1.474c.61-.609 1.674-.608 2.283 0l2.268 2.268v-1.07a.75.75 0 0 1 1.499 0Z"/></svg>
